svg/transport/hood_line.svg

<?xml version="1.0" encoding="UTF-8"?>
<svg width="24px" height="24px" viewBox="0 0 24 24" version="1.1" xmlns="http://www.w3.org/2000/svg" xmlns:xlink="http://www.w3.org/1999/xlink">
    <title>hood_line</title>
    <g id="Icon" stroke="none" stroke-width="1" fill="none" fill-rule="evenodd">
        <g id="Transport" transform="translate(-816.000000, -192.000000)">
            <g id="hood_line" transform="translate(816.000000, 192.000000)">
                <path d="M24,0 L24,24 L0,24 L0,0 L24,0 Z M12.5935,23.2578 L12.5819,23.2595 L12.5109,23.295 L12.4919,23.2987 L12.4767,23.295 L12.4057,23.2595 C12.3958,23.2564 12.387,23.259 12.3821,23.2649 L12.378,23.2758 L12.3609,23.7031 L12.3659,23.7235 L12.3769,23.7357 L12.4805,23.8097 L12.4953,23.8136 L12.5071,23.8097 L12.6107,23.7357 L12.6233,23.7197 L12.6267,23.7031 L12.6096,23.2758 C12.6076,23.2657 12.601,23.2593 12.5935,23.2578 Z M12.8584,23.1453 L12.8445,23.1473 L12.6598,23.2397 L12.6499,23.2499 L12.6472,23.2611 L12.6651,23.6906 L12.6699,23.7034 L12.6784,23.7105 L12.8793,23.8032 C12.8914,23.8069 12.9022,23.803 12.9078,23.7952 L12.9118,23.7812 L12.8777,23.1665 C12.8753,23.1546 12.8674,23.147 12.8584,23.1453 Z M12.143,23.1473 C12.1332,23.1424 12.1222,23.1453 12.1156,23.1526 L12.1099,23.1665 L12.0758,23.7812 C12.0751,23.7927 12.0828,23.8019 12.0926,23.8046 L12.1083,23.8032 L12.3092,23.7105 L12.3186,23.7024 L12.3225,23.6906 L12.3404,23.2611 L12.3372,23.2485 L12.3278,23.2397 L12.143,23.1473 Z" id="MingCute" fill-rule="nonzero"></path>
                <path d="M5.97342,4.39525 C6.67829,4.04282 7.5244,4.13716 8.13433,4.63619 L12.9323,8.56179 C13.4072,8.28111 13.8947,7.95432 14.4325,7.59379 C16.0783,6.49044 17.7587,5.43354 19.6567,4.81519 C19.9963,4.70454 20.3884,4.61034 20.8115,4.52919 L21.1883,6.49338 C20.8152,6.56494 20.5103,6.64055 20.2762,6.71682 C18.5937,7.26496 17.1038,8.2114 15.645,9.18998 C14.7972,9.75871 13.9361,10.3364 13.091,10.7493 C12.4504,11.0624 11.6268,11.2742 10.8254,11.45 C10.0072,11.6295 9.14126,11.7857 8.30038,11.9754 C7.46709,12.1634 6.73179,12.3692 6.15816,12.629 C5.5691,12.8958 5.29189,13.1569 5.18272,13.3703 C4.82522,14.0692 5.03855,14.8316 5.45139,15.5155 C5.61561,15.7875 5.99274,16 6.55995,16 L9.17071,16 C9.58255,14.8348 10.6938,14 12,14 C13.3062,14 14.4175,14.8348 14.8293,16 L20.9999,16 L20.9999,18 L14.8293,18 C14.4175,19.1652 13.3062,20 12,20 C10.6938,20 9.58253,19.1652 9.1707,18 L6.55995,18 C5.55965,18 4.38512,17.6191 3.73921,16.5491 C3.20301,15.661 2.56698,14.092 3.40219,12.4595 C3.81548,11.6516 4.5832,11.1468 5.33296,10.8072 C6.09815,10.4606 6.99556,10.2195 7.86029,10.0244 C8.83821,9.80383 9.82773,9.63646 10.8029,9.40371 L6.86785,6.1841 L5.44708,6.89448 C4.95311,7.14147 4.35243,6.94125 4.10544,6.44727 C3.85845,5.95329 4.05868,5.35262 4.55266,5.10563 L5.97342,4.39525 Z M11.995,18 C11.9966,18 11.9983,18 12,18 C12.0017,18 12.0034,18 12.005,18 C12.555,17.9973 13,17.5506 13,17 C13,16.4477 12.5523,16 12,16 C11.4477,16 11,16.4477 11,17 C11,17.5506 11.445,17.9973 11.995,18 Z" id="形状" fill="#09244B"></path>
            </g>
        </g>
    </g>
</svg>

<svg xmlns="http://www.w3.org/2000/svg" width="24" height="24"><g fill="none" fill-rule="evenodd"><path d="M24 0v24H0V0h24ZM12.594 23.258l-.012.002-.071.035-.02.004-.014-.004-.071-.036c-.01-.003-.019 0-.024.006l-.004.01-.017.428.005.02.01.013.104.074.015.004.012-.004.104-.074.012-.016.004-.017-.017-.427c-.002-.01-.009-.017-.016-.018Zm.264-.113-.014.002-.184.093-.01.01-.003.011.018.43.005.012.008.008.201.092c.012.004.023 0 .029-.008l.004-.014-.034-.614c-.003-.012-.01-.02-.02-.022Zm-.715.002a.023.023 0 0 0-.027.006l-.006.014-.034.614c0 .012.007.02.017.024l.015-.002.201-.093.01-.008.003-.011.018-.43-.003-.012-.01-.01-.184-.092Z"/><path fill="#09244B" d="M5.973 4.395a2 2 0 0 1 2.161.241l4.798 3.926c.475-.28.963-.608 1.5-.968 1.646-1.104 3.327-2.16 5.225-2.779.34-.11.731-.205 1.154-.286l.377 1.964a7.726 7.726 0 0 0-.912.224c-1.682.548-3.172 1.494-4.631 2.473-.848.569-1.709 1.146-2.554 1.56-.64.312-1.464.524-2.266.7-.818.18-1.684.336-2.525.525-.833.188-1.568.394-2.142.654-.589.267-.866.528-.975.741-.358.7-.144 1.462.268 2.146.165.271.542.484 1.109.484h2.61a3.001 3.001 0 0 1 5.66 0H21v2h-6.17a3.001 3.001 0 0 1-5.66 0H6.56c-1 0-2.175-.38-2.82-1.45-.537-.889-1.173-2.458-.338-4.09.413-.808 1.181-1.313 1.931-1.653.765-.346 1.663-.588 2.527-.783.978-.22 1.968-.388 2.943-.62l-3.935-3.22-1.42.71a1 1 0 1 1-.895-1.788l1.42-.71ZM11.995 18h.01a1 1 0 1 0-.01 0Z"/></g></svg>
